X:414
T: DIE FRANZOSEN BRECHEN EIN
N: E0342
O: Europa, Mitteleuropa, Deutschland, Franken
R: historisches Lied, Krieg gegen Franzosen (1799)
M: 3/4
L: 1/8
K: G
D2 | G2GBAF | G4
A2 | B2BdcA | B4
GA | B2B2Bc | d3c
B2 | BAAGAB | c3B
A2 | B2dcBA | G4
A2 | B2dcBA | G4

@@@ Tune index: 4064
